svgs/sharp-regular/arrow-down-to-dotted-line.svg

<svg xmlns="http://www.w3.org/2000/svg" viewBox="0 0 448 512"><!--! Font Awesome Pro 6.6.0 by @fontawesome - https://fontawesome.com License - https://fontawesome.com/license (Commercial License) Copyright 2024 Fonticons, Inc. --><path d="M64 416l0 64L0 480l0-64 64 0zm96 0l0 64-64 0 0-64 64 0zm32 0l64 0 0 64-64 0 0-64zm160 0l0 64-64 0 0-64 64 0zm32 0l64 0 0 64-64 0 0-64zM241.5 360.4L224 379l-17.5-18.6-128-136L62.1 207l35-32.9 16.4 17.5L200 283.5l0-83.5 0-128 0-24 48 0 0 24 0 128 0 83.5 86.5-91.9L351 174.1l35 32.9-16.4 17.5-128 136z"/></svg>

<svg xmlns="http://www.w3.org/2000/svg" viewBox="0 0 448 512"><!--! Font Awesome Pro 6.4.2 by @fontawesome - https://fontawesome.com License - https://fontawesome.com/license (Commercial License) Copyright 2023 Fonticons, Inc. --><path d="M64 416v64H0V416H64zm96 0v64H96V416h64zm32 0h64v64H192V416zm160 0v64H288V416h64zm32 0h64v64H384V416zM241.5 360.4L224 379l-17.5-18.6-128-136L62.1 207l35-32.9 16.4 17.5L200 283.5V200 72 48h48V72 200v83.5l86.5-91.9L351 174.1l35 32.9-16.4 17.5-128 136z"/></svg>
